!!!COM:	Martinu
!!!OTL:	474_Mau-64/89/[5]6-10
**kern	**dynam	**kern	**dynam	**kern	**dynam	**kern	**dynam	**kern	**kern	**dynam	**kern	**dynam	**kern	**dynam	**kern	**dynam	**kern	**dynam
*part9	*part9	*part8	*part8	*part7	*part7	*part6	*part6	*part5	*part5	*part5	*part4	*part4	*part3	*part3	*part2	*part2	*part1	*part1
*staff10	*	*staff9	*	*staff8	*	*staff7	*	*staff6	*staff5	*	*staff4	*	*staff3	*	*staff2	*	*staff1	*
*I"Contrabass	*	*I"Violoncello II	*	*I"Viola	*	*I"Violin II	*	*I"Piano	*	*	*I"Horn in F	*	*I"Bassoon	*	*I"Oboe	*	*I"Flute	*
*I'Cb.	*	*I'Vc.	*	*I'Vla.	*	*I'Vln. II	*	*I'Pno.	*	*	*I'Hn.	*	*I'Bsn.	*	*I'Ob.	*	*I'Fl.	*
!!pagebreak:original
*clefF4	*	*clefC3	*	*clefG2	*	*clefG2	*	*clefF4	*clefG2	*	*clefG2	*	*clefC4	*	*clefG2	*	*clefG2	*
*	*	*	*	*	*	*	*	*	*	*	*ITrd4c7	*	*	*	*	*	*	*
*k[]	*	*k[]	*	*k[]	*	*k[]	*	*k[]	*k[]	*	*k[]	*	*k[]	*	*k[]	*	*k[]	*
*C:	*	*C:	*	*C:	*	*C:	*	*C:	*C:	*	*C:	*	*C:	*	*C:	*	*C:	*
*M3/8	*	*M3/8	*	*M3/8	*	*M3/8	*	*M3/8	*M3/8	*	*M3/8	*	*M3/8	*	*M3/8	*	*M3/8	*
=1	=	=	=	=	=	=	=	=	=	=	=	=	=	=	=	=	=	=
8%3r	.	8%3r	.	8%3r	.	8%3r	.	8BBB-X' 8BB-X	8f' 8cc 8ff	<	(<8B-L	<	(>8cL 8f	<	(<8a-XL 8cc	<	(>8ffL	<
.	.	.	.	.	.	.	.	8EE-XL 8AA-X	(>8cc-XL 8ee-X 8gg-X	.	8A-X'J)	.	8c'J 8e-X)	.	8g-X'J 8b-X)	.	8ee-X'J)	.
.	.	.	.	.	.	.	.	8AAA-X'J	8g-XJ)	.	8r	[	8r	[	8r	[	8r	[
=2	=2	=2	=2	=2	=2	=2	=2	=2	=2	=2	=2	=2	=2	=2	=2	=2	=2	=2
8%3r	.	8%3r	.	8%3r	.	8%3r	.	8EE-XL	(>8b-XL 8ee-X 8ggn	.	8B-'	.	8c' 8e-X	.	8gn' 8b-X	.	8ee-X'	.
.	.	.	.	.	.	.	.	8EEE-X'J	8gnJ)	[	8r	.	8r	.	8r	.	8r	.
.	.	.	.	.	.	.	.	8EEE-' 8EE-	8a-X' 8ee- 8aa-X	.	8A-X	mf	8c' 8e-	mf	8f 8a-X	mf	(>8ee-	mf
=3	=3	=3	=3	=3	=3	=3	=3	=3	=3	=3	=3	=3	=3	=3	=3	=3	=3	=3
8r	.	8r	.	8r	.	8%3r	.	8BBB-XL 8BB-X	(>8ddL 8ff 8bb-X	f	8B-'	>	8B-X' 8d	.	8f 8b-X	.	8ddL)	.
!LO:TX:t=pizz.	!	!LO:TX:t=pizz.	!	!	!	!	!	!	!	!	!	!	!	!	!	!	!	!
8BB-X	p	8A'L	p	8r	.	.	.	8F'J 8B-X 8d	8b-X'J)	.	4B-~	mp	8r	.	8r	.	(>8b-X	.
8r	.	8a-X'J	.	16a-XLL	p	.	.	8AL 8c#X	(>8dd#XL 8bbn	.	.	.	8r	.	8r	.	8aJ	.
.	.	.	.	16a-JJ	.	.	.	.	.	.	.	.	.	.	.	.	.	.
=4	=4	=4	=4	=4	=4	=4	=4	=4	=4	=4	=4	=4	=4	=4	=4	=4	=4	=4
!!pagebreak:original
!	!	!	!	!	!	!LO:TX:t=pizz.	!	!	!	!	!	!	!	!	!	!	!	!
8r	.	8r	.	8a-X	.	8b-X'L	p	8E'J	8bn'J)	.	4B-~	.	8%3r	.	8%3r	.	8b-XL)	.
8r	.	8r	.	8r	.	8bb-X'J	.	8E-X' 8A-X 8cn	8cc' 8ee#X 8ccc	.	.	.	.	.	.	.	(<8a	.
8BB-X	.	8A-X	.	8r	.	8r	.	8G'L 8Bn	8ee#X'L 8ccc#X	.	[8B-	.	.	.	.	.	8b-X'J)	.
=5	=5	=5	=5	=5	=5	=5	=5	=5	=5	=5	=5	=5	=5	=5	=5	=5	=5	=5
8%3r	.	8a-X	.	16a-XLL	.	8r	.	8D'J	8cc#X'J	.	8B-]	.	8%3r	.	8%3r	.	(<8aL	.
.	.	.	.	16a-J	.	.	.	.	.	.	.	.	.	.	.	.	.	.
.	.	8r	.	8a-J	.	8b-X'L	.	8G-XL 8B-X	(>8ff#XL 8ddd	.	4B-	.	.	.	.	.	8b-X')	.
.	.	8r	.	8r	.	8bb-X'J	.	8D-X'J	8ddn'J)	.	.	.	.	.	.	.	(<8aJ	.
=6	=6	=6	=6	=6	=6	=6	=6	=6	=6	=6	=6	=6	=6	=6	=6	=6	=6	=6
8BB-X	mf	8A-XL	mf	8r	.	8r	.	8C' 8F 8A	8ee-X' 8gg 8eee-X	.	4B-	<	8%3r	.	8%3r	.	8b-X'L)	.
8r	.	8a-XJ	.	16a-XLL	mf	8r	.	8E'L 8G#X	8gg#X'L 8eeen	<	.	.	.	.	.	.	(<8a	<
.	.	.	.	16a-J	.	.	.	.	.	.	.	.	.	.	.	.	.	.
8r	.	8r	.	8a-J	.	8b-X'	mf	8BB'J	8een'J	.	[8B-	.	.	.	.	.	8b-X'J)	.
=7	=7	=7	=7	=7	=7	=7	=7	=7	=7	=7	=7	=7	=7	=7	=7	=7	=7	=7
8%3r	.	8%3r	.	8%3r	.	8bb-X'	.	8E-XL 8Gn	(>8aaL 8fff	.	4B-]	.	8%3r	.	8%3r	.	(<8aL	.
.	.	.	.	.	.	8r	.	8BB-X'J	8ff'J)	[	.	.	.	.	.	.	8b-X'J)	.
.	.	.	.	.	.	8r	.	8AA' 8D 8F#X	8gg-X' 8bb-X 8ggg-X	.	[8B-	[	.	.	.	.	8r	[
==	==	==	==	==	==	==	==	==	==	==	==	==	==	==	==	==	==	==
*-	*-	*-	*-	*-	*-	*-	*-	*-	*-	*-	*-	*-	*-	*-	*-	*-	*-	*-
!!!system-decoration: [(s1,s2,s3)]s4[({(s5,s6)})][(s7,s8,s9,s10)]
!!!RDF**kern: > = above
!!!RDF**kern: < = below
!!!ONB: Converted from MusicXML on 2020/01/17
